src/assets/outline/Firstline.svg

<?xml version="1.0" encoding="UTF-8"?>
<svg width="24" height="24" viewBox="0 0 24 24" xmlns="http://www.w3.org/2000/svg">
 <path d="m21 5.25h-7c-0.41 0-0.75-0.34-0.75-0.75s0.34-0.75 0.75-0.75h7c0.41 0 0.75 0.34 0.75 0.75s-0.34 0.75-0.75 0.75z"/>
 <path d="m21 10.25h-7c-0.41 0-0.75-0.34-0.75-0.75s0.34-0.75 0.75-0.75h7c0.41 0 0.75 0.34 0.75 0.75s-0.34 0.75-0.75 0.75z"/>
 <path d="m21 15.25h-18c-0.41 0-0.75-0.34-0.75-0.75s0.34-0.75 0.75-0.75h18c0.41 0 0.75 0.34 0.75 0.75s-0.34 0.75-0.75 0.75z"/>
 <path d="m21 20.25h-18c-0.41 0-0.75-0.34-0.75-0.75s0.34-0.75 0.75-0.75h18c0.41 0 0.75 0.34 0.75 0.75s-0.34 0.75-0.75 0.75z"/>
 <path d="m7.92 10.75h-2.84c-1.54 0-2.33-0.78-2.33-2.33v-2.84c0-1.54 0.78-2.33 2.33-2.33h2.85c1.54 0 2.33 0.78 2.33 2.33v2.85c-0.01 1.54-0.79 2.32-2.34 2.32zm-2.84-6c-0.71 0-0.83 0.12-0.83 0.83v2.85c0 0.71 0.12 0.83 0.83 0.83h2.85c0.71 0 0.83-0.12 0.83-0.83v-2.85c0-0.71-0.12-0.83-0.83-0.83h-2.85z"/>
</svg>

<svg width="24" height="24" viewBox="0 0 24 24"  xmlns="http://www.w3.org/2000/svg">
<path d="M21 5.25H14C13.59 5.25 13.25 4.91 13.25 4.5C13.25 4.09 13.59 3.75 14 3.75H21C21.41 3.75 21.75 4.09 21.75 4.5C21.75 4.91 21.41 5.25 21 5.25Z" />
<path d="M21 10.25H14C13.59 10.25 13.25 9.91 13.25 9.5C13.25 9.09 13.59 8.75 14 8.75H21C21.41 8.75 21.75 9.09 21.75 9.5C21.75 9.91 21.41 10.25 21 10.25Z" />
<path d="M21 15.25H3C2.59 15.25 2.25 14.91 2.25 14.5C2.25 14.09 2.59 13.75 3 13.75H21C21.41 13.75 21.75 14.09 21.75 14.5C21.75 14.91 21.41 15.25 21 15.25Z" />
<path d="M21 20.25H3C2.59 20.25 2.25 19.91 2.25 19.5C2.25 19.09 2.59 18.75 3 18.75H21C21.41 18.75 21.75 19.09 21.75 19.5C21.75 19.91 21.41 20.25 21 20.25Z" />
<path d="M7.92 10.75H5.08C3.54 10.75 2.75 9.97 2.75 8.42V5.58C2.75 4.04 3.53 3.25 5.08 3.25H7.93C9.47 3.25 10.26 4.03 10.26 5.58V8.43C10.25 9.97 9.47 10.75 7.92 10.75ZM5.08 4.75C4.37 4.75 4.25 4.87 4.25 5.58V8.43C4.25 9.14 4.37 9.26 5.08 9.26H7.93C8.64 9.26 8.76 9.14 8.76 8.43V5.58C8.76 4.87 8.64 4.75 7.93 4.75H5.08Z" />
</svg>
